assets/svg/debit-pay.svg

<?xml version="1.0" encoding="UTF-8"?>
<svg width="1000px" height="1000px" viewBox="0 0 1000 1000" version="1.1" xmlns="http://www.w3.org/2000/svg" xmlns:xlink="http://www.w3.org/1999/xlink">
    <!-- Generator: sketchtool 52.4 (67378) - http://www.bohemiancoding.com/sketch -->
    <title>debit-pay</title>
    <desc>Created with sketchtool.</desc>
    <g id="新版图标" stroke="none" stroke-width="1" fill="none" fill-rule="evenodd">
        <g id="debit-pay" fill="#323233">
            <g id="圆角-借记卡支付-线">
                <path d="M888.888889,166.666667 C919.555556,166.666667 944.444444,191.5 944.444444,222.222222 L944.444444,277.777778 L944.444444,333.333333 L944.444444,777.777778 C944.444444,808.5 919.555556,833.333333 888.888889,833.333333 L111.111111,833.333333 C80.4444444,833.333333 55.5555556,808.5 55.5555556,777.777778 L55.5555556,333.333333 L55.5555556,277.777778 L55.5555556,222.222222 C55.5555556,191.5 80.4444444,166.666667 111.111111,166.666667 L888.888889,166.666667 Z M111.111111,277.777778 L888.888889,277.777778 L888.888889,222.222222 L111.111111,222.222222 L111.111111,277.777778 Z M111.111111,777.777778 L888.888889,777.777778 L888.888889,333.333333 L111.111111,333.333333 L111.111111,777.777778 Z M468.572222,697.805556 C479.405556,708.638889 497.016667,708.638889 507.85,697.805556 L547.127778,658.527778 C557.961111,647.694444 557.961111,630.083333 547.127778,619.25 C536.294444,608.416667 518.683333,608.416667 507.85,619.25 L468.572222,658.527778 C457.738889,669.361111 457.738889,686.972222 468.572222,697.805556 M618.961111,697.805556 L658.238889,658.527778 C669.072222,647.694444 669.072222,630.083333 658.238889,619.25 C647.405556,608.416667 629.794444,608.416667 618.961111,619.25 L579.683333,658.527778 C568.85,669.361111 568.85,686.972222 579.683333,697.805556 C590.516667,708.638889 608.127778,708.638889 618.961111,697.805556 M730.072222,697.805556 L769.35,658.527778 C780.183333,647.694444 780.183333,630.083333 769.35,619.25 C758.516667,608.416667 740.905556,608.416667 730.072222,619.25 L690.794444,658.527778 C679.961111,669.361111 679.961111,686.972222 690.794444,697.805556 C701.627778,708.638889 719.238889,708.638889 730.072222,697.805556" id="Fill-1"></path>
            </g>
        </g>
    </g>
</svg>

<svg width="1000" height="1000" xmlns="http://www.w3.org/2000/svg"><path d="M888.889 166.667c30.667 0 55.555 24.833 55.555 55.555v555.556c0 30.722-24.888 55.555-55.555 55.555H111.11c-30.667 0-55.555-24.833-55.555-55.555V222.222c0-30.722 24.888-55.555 55.555-55.555H888.89zM111.11 277.777H888.89v-55.555H111.11v55.556zm0 500H888.89V333.334H111.11v444.445zm357.461-79.971c10.834 10.833 28.445 10.833 39.278 0l39.278-39.278c10.833-10.834 10.833-28.445 0-39.278-10.834-10.833-28.445-10.833-39.278 0l-39.278 39.278c-10.833 10.833-10.833 28.444 0 39.278m150.39 0l39.277-39.278c10.833-10.834 10.833-28.445 0-39.278-10.833-10.833-28.445-10.833-39.278 0l-39.278 39.278c-10.833 10.833-10.833 28.444 0 39.278 10.834 10.833 28.445 10.833 39.278 0m111.111 0l39.278-39.278c10.833-10.834 10.833-28.445 0-39.278-10.833-10.833-28.444-10.833-39.278 0l-39.278 39.278c-10.833 10.833-10.833 28.444 0 39.278 10.834 10.833 28.445 10.833 39.278 0" fill="#323233" fill-rule="evenodd"/></svg>
